X: 1
T: Long Live London
C: Pat Shaw 1971
Z: John Chambers <jc@trillian.mit.edu>
M: C|
L: 1/4
K: G
d \
| "G"g>dBd | "C"eg2e | "G"d>B GB | "D7"A3d \
| "G"g>dBd | "C"eg2e | "G"dB "D7"A>B | "G"G3 :|
G \
| "C"E>DEG | "G"D>B,DG | "D7"A>GAB | "G"G3B \
| "D7"A>FAd | "G"B>GBd | "A7"^cdef | gfe^c |
| "D7"d>edc | "G"BdGA/B/ | "C"c>BAG | "D7"FADe/f/ \
| "G"g>dBd | "Am"e>cAc | "D7"Bd2c/A/ | "G"G3 |]
